X: 8
%
U:~=!turn!
T: Appin House
C:Arranged by K. N. Macdonald
O:Scotland
B:Keith Norman MacDonald : "The Skye collection of the best reels & strathspeys extant" : 1887
Z:Ralph Palmer
R:Reel
M:C|
L:1/8
K:G
E | (D<B,) DE G<D D2 | {/E}D<B, DE G<B, A,2 | {/E}D<B, DE G<D D2 | .D.E .D.E .F.G .G :: c<B G/G/G BG G2 |
BA D/D/D (AD) D2 | cB G/G/G BG G2 | [1 BA D/D/D G2 G2 :| [2 .B.A .D.E .F.G .G2 |: e<d B<g B<d B<g | B<A a<a g<A a<a |
e<d B<g B<d B<g | de de fg g2 :: e>d e>d c>B G<G | BA DD BA DD | de dc B<G G2 | BA DE FG G2 :|


